X:121
T:No name
R:slide
Z:id:hn-slide-121
M:6/8
L:1/8
K:D
A2A ABc | d2d def | g2e f2d | e2d Bcd |
A2A ABc | d2e fef | a2f efe |1 d3 dcB :|2 d3 def ||
|: g2g gfe | f3 fed | e2e efg | a3 d2B |
A2A ABc | d2e fef | a2f efe |1 d3 def :|2 d3 dcB ||

